X: 21504
T: BY THE MARGIN OF ZURICH'S FAIR WATERS
O: Swiss air.
Q: "Allegretto."
%R: air, waltz
B: W. Hamilton "Universal Tune-Book" Vol. 2 Glasgow 1846 p.150 #4 (and p.151 #1)
S: http://s3-eu-west-1.amazonaws.com/itma.dl.printmaterial/book_pdfs/hamiltonvol2web.pdf
Z: 2016 John Chambers <jc:trillian.mit.edu>
M: 3/8
L: 1/16
K: D
% - - - - - - - - - - - - - - - - - - - - - - - - -
DE |\
F2F2F2 | G2(GF)(GE) | FAd2 A2 | Afd2 DE |\
F2F2F2 | A2(GF)(GE) | D2d2d2 | d4 |] \
AA |\
A2B2A2 | A2E2A2 |
F2F2F2 | F4 AA |\
A2B2A2 | A2E2A2 | F2F2F2 | F4 (DE) |\
F2F2F2 | G2(GF)(GE) | FAd2A2 | Afd2 (DE) |\
F2B2A2 | G2F2E2 | D2d2d2 | d4 |]
(A^G) |\
Age2 A^G | Afd2A2 | G2(GF)(GE) | DFA2 A^G |\
Age2 A^G | Afd2A2 | A2(GF)(GE) | (D6 |\
D4 F)A | D4 |]
% - - - - - - - - - - - - - - - - - - - - - - - - -

% (Continued from previous page)

%%sep 1 1 500
%%sep 1 1 500

